Sources/FrostedUI/Resources/Icons.xcassets/monitorSize12.imageset/monitor-size-12.svg

<svg
  width="12"
  height="12"
  viewBox="0 0 12 12"
  fill="none"
  xmlns="http://www.w3.org/2000/svg"
  data-fui-icon="true"
>
  <path
    d="M2.375 8.625H9.625C10.1773 8.625 10.625 8.1773 10.625 7.625V2.875C10.625 2.32271 10.1773 1.875 9.625 1.875H2.375C1.82271 1.875 1.375 2.32271 1.375 2.875V7.625C1.375 8.1773 1.82271 8.625 2.375 8.625zM1.59375 6.73438H10.25M4 10.6562L8 10.6563M4.60156 8.625V10.6562M7.39844 8.625V10.6562"
    stroke="currentColor"
    stroke-width="1.5"
    stroke-linecap="round"
    stroke-linejoin="round"
  />
</svg>

<svg xmlns="http://www.w3.org/2000/svg" width="12" height="12" fill="none" data-fui-icon="true" viewBox="0 0 12 12"><path stroke="currentColor" stroke-linecap="round" stroke-linejoin="round" stroke-width="1.5" d="M2.375 8.625h7.25a1 1 0 0 0 1-1v-4.75a1 1 0 0 0-1-1h-7.25a1 1 0 0 0-1 1v4.75a1 1 0 0 0 1 1m-.781-1.89h8.656M4 10.655h4M4.602 8.625v2.031m2.796-2.031v2.031"/></svg>
